X: 566
T: Reel de Mattawa
C: Richard Forest
R: reel
Z: 2011 John Chambers <jc:trillian.mit.edu>
B: Fiddle Hell 2020 Quebec Jam handout
M: 4/4
L: 1/8
K: Edor
B2 |:\
"Em"ABeB gBeB | ABeB gBeB |[1,3 "D"ddfd gdfd | Adfd gdfd :|[2,4 "D"f2fg fedc | "Em"Bcd2 e2 :|
|: ef |\
"Em"gefd ecdB | "D(Bm)"ABAF D2FD |[1,3 "C"EFGA B2ef | "Bm"gfed A2 :|[2,4 "C"EFGA B2AG | "D"FAGF "Em"E2 :|
